X: 1
T: Lucy Farr's
M: 2/4
L: 1/8
R: polka
K: Gmaj
A>B AG | ED DE/2F/2 | GE BE | cB/2c/2 dc |
A>B AG | ED DE/2G/2 | AB/2A/2 GE | D2 D2 :|
Ad dc | AG A>B | cd ed | cA AG |
Ad d>c | AG EG | cd/2c/2 B/2A/2G | A2 A2 |
Ad dc | AG A>B | cd ed | cA AG |
D>D E/2F/2G | c2 Bc/2B/2 | AB/2A/2 GE | D2 D2 ||
